dist/img/favourite.svg

<svg width="82" height="61" viewBox="0 0 82 61" fill="none" xmlns="http://www.w3.org/2000/svg">
<path d="M41 32.025L38.825 30.045C31.1 23.04 26 18.42 26 12.75C26 8.13 29.63 4.5 34.25 4.5C36.86 4.5 39.365 5.715 41 7.635C42.635 5.715 45.14 4.5 47.75 4.5C52.37 4.5 56 8.13 56 12.75C56 18.42 50.9 23.04 43.175 30.06L41 32.025Z" fill="#2D2D2D"/>
<path d="M11.04 45.432V57H8.88V49.752C8.88 49.48 8.88533 49.1947 8.896 48.896C8.912 48.5973 8.944 48.28 8.992 47.944C8.88533 48.2427 8.768 48.52 8.64 48.776C8.51733 49.0267 8.39733 49.248 8.28 49.44L3.856 56.336C3.808 56.416 3.74933 56.496 3.68 56.576C3.616 56.656 3.544 56.728 3.464 56.792C3.384 56.8507 3.296 56.9013 3.2 56.944C3.104 56.9813 3.00533 57 2.904 57H1.288V45.432H3.448V52.68C3.448 52.952 3.44 53.24 3.424 53.544C3.41333 53.8427 3.384 54.16 3.336 54.496C3.44267 54.1973 3.55733 53.92 3.68 53.664C3.808 53.408 3.93333 53.184 4.056 52.992L8.472 46.096C8.52 46.016 8.576 45.936 8.64 45.856C8.70933 45.776 8.784 45.7067 8.864 45.648C8.944 45.584 9.02933 45.5333 9.12 45.496C9.216 45.4533 9.31733 45.432 9.424 45.432H11.04ZM12.6366 49.68C12.946 49.3813 13.33 49.1387 13.7886 48.952C14.2473 48.76 14.7966 48.664 15.4366 48.664C15.9433 48.664 16.394 48.7253 16.7886 48.848C17.1833 48.9653 17.514 49.128 17.7806 49.336C18.0526 49.5387 18.258 49.7733 18.3966 50.04C18.5406 50.3013 18.6126 50.576 18.6126 50.864C18.6126 51.0187 18.5886 51.1813 18.5406 51.352C18.498 51.5173 18.4233 51.68 18.3166 51.84C18.2153 52 18.0793 52.1493 17.9086 52.288C17.738 52.4213 17.5273 52.536 17.2766 52.632C17.7246 52.8027 18.0846 53.0533 18.3566 53.384C18.634 53.7147 18.7726 54.1227 18.7726 54.608C18.7726 55.008 18.6793 55.3627 18.4926 55.672C18.3113 55.9813 18.0686 56.2453 17.7646 56.464C17.4606 56.6773 17.1113 56.84 16.7166 56.952C16.3273 57.064 15.9246 57.12 15.5086 57.12C15.274 57.12 15.0206 57.0987 14.7486 57.056C14.482 57.0133 14.2126 56.9413 13.9406 56.84C13.6686 56.7333 13.402 56.5947 13.1406 56.424C12.8793 56.248 12.642 56.032 12.4286 55.776L12.9966 55.056C13.0766 54.9333 13.1966 54.872 13.3566 54.872C13.4793 54.872 13.5966 54.912 13.7086 54.992C13.8206 55.0667 13.9486 55.152 14.0926 55.248C14.242 55.3387 14.418 55.424 14.6206 55.504C14.8233 55.5787 15.0766 55.616 15.3806 55.616C15.8766 55.616 16.2526 55.504 16.5086 55.28C16.7646 55.056 16.8926 54.776 16.8926 54.44C16.8926 54.1093 16.7593 53.8507 16.4926 53.664C16.2313 53.4773 15.8046 53.384 15.2126 53.384H14.2846V52.096H15.2126C15.73 52.096 16.1273 52.0053 16.4046 51.824C16.682 51.6427 16.8206 51.4027 16.8206 51.104C16.8206 50.832 16.698 50.608 16.4526 50.432C16.2126 50.256 15.8553 50.168 15.3806 50.168C15.098 50.168 14.858 50.1973 14.6606 50.256C14.4633 50.3147 14.2926 50.3787 14.1486 50.448C14.01 50.512 13.8926 50.5733 13.7966 50.632C13.7006 50.6907 13.61 50.72 13.5246 50.72C13.434 50.72 13.3566 50.704 13.2926 50.672C13.2286 50.6347 13.1593 50.5573 13.0846 50.44L12.6366 49.68ZM24.1758 55.68C24.8584 55.68 25.3678 55.4613 25.7038 55.024C26.0398 54.5867 26.2078 53.9467 26.2078 53.104C26.2078 52.2667 26.0424 51.6293 25.7118 51.192C25.3864 50.7547 24.8878 50.536 24.2158 50.536C23.5438 50.536 23.0318 50.744 22.6798 51.16C22.3278 51.5707 22.1518 52.1867 22.1518 53.008C22.1518 53.8773 22.3171 54.5413 22.6478 55C22.9838 55.4533 23.4931 55.68 24.1758 55.68ZM24.7518 47.304C24.2504 47.336 23.8211 47.4347 23.4638 47.6C23.1118 47.76 22.8184 47.9787 22.5838 48.256C22.3544 48.528 22.1784 48.856 22.0558 49.24C21.9384 49.6187 21.8691 50.04 21.8478 50.504C21.9811 50.296 22.1438 50.1067 22.3358 49.936C22.5331 49.76 22.7518 49.6107 22.9918 49.488C23.2371 49.36 23.5011 49.2613 23.7838 49.192C24.0718 49.1227 24.3784 49.088 24.7038 49.088C25.2478 49.088 25.7384 49.184 26.1758 49.376C26.6131 49.568 26.9838 49.84 27.2878 50.192C27.5971 50.544 27.8318 50.968 27.9918 51.464C28.1571 51.9547 28.2398 52.4987 28.2398 53.096C28.2398 53.7147 28.1411 54.272 27.9438 54.768C27.7518 55.264 27.4771 55.688 27.1198 56.04C26.7678 56.3867 26.3411 56.6533 25.8398 56.84C25.3384 57.0267 24.7838 57.12 24.1758 57.12C23.5838 57.12 23.0371 57.024 22.5358 56.832C22.0398 56.64 21.6104 56.328 21.2478 55.896C20.8851 55.464 20.6024 54.904 20.3997 54.216C20.1971 53.5227 20.0958 52.6773 20.0958 51.68C20.0958 50.8427 20.1731 50.064 20.3278 49.344C20.4824 48.624 20.7358 47.9947 21.0878 47.456C21.4398 46.912 21.9011 46.4747 22.4718 46.144C23.0424 45.8133 23.7464 45.616 24.5838 45.552L27.5038 45.328L27.6077 46.352C27.6291 46.5707 27.5971 46.7573 27.5118 46.912C27.4264 47.0613 27.2744 47.1413 27.0558 47.152L24.7518 47.304ZM31.7489 54.872C31.9729 55.144 32.2155 55.336 32.4769 55.448C32.7435 55.56 33.0315 55.616 33.3409 55.616C33.6395 55.616 33.9089 55.56 34.1489 55.448C34.3889 55.336 34.5915 55.1653 34.7569 54.936C34.9275 54.7067 35.0582 54.4187 35.1489 54.072C35.2395 53.72 35.2849 53.3067 35.2849 52.832C35.2849 52.352 35.2449 51.9467 35.1649 51.616C35.0902 51.28 34.9809 51.008 34.8369 50.8C34.6929 50.592 34.5169 50.44 34.3089 50.344C34.1062 50.248 33.8742 50.2 33.6129 50.2C33.2022 50.2 32.8529 50.288 32.5649 50.464C32.2769 50.6347 32.0049 50.8773 31.7489 51.192V54.872ZM31.6449 49.912C31.9809 49.5333 32.3622 49.2267 32.7889 48.992C33.2155 48.7573 33.7169 48.64 34.2929 48.64C34.7409 48.64 35.1489 48.7333 35.5169 48.92C35.8902 49.1067 36.2102 49.3787 36.4769 49.736C36.7489 50.088 36.9569 50.5253 37.1009 51.048C37.2502 51.5653 37.3249 52.16 37.3249 52.832C37.3249 53.4453 37.2422 54.0133 37.0769 54.536C36.9115 55.0587 36.6742 55.512 36.3649 55.896C36.0609 56.28 35.6902 56.5813 35.2529 56.8C34.8209 57.0133 34.3355 57.12 33.7969 57.12C33.3382 57.12 32.9462 57.0507 32.6209 56.912C32.2955 56.768 32.0049 56.5707 31.7489 56.32V59.68H29.7729V48.792H30.9809C31.2369 48.792 31.4049 48.912 31.4849 49.152L31.6449 49.912ZM43.187 53.496C42.6163 53.5227 42.1363 53.5733 41.747 53.648C41.3577 53.7173 41.0457 53.808 40.811 53.92C40.5763 54.032 40.4083 54.1627 40.307 54.312C40.2057 54.4613 40.155 54.624 40.155 54.8C40.155 55.1467 40.2563 55.3947 40.459 55.544C40.667 55.6933 40.9363 55.768 41.267 55.768C41.6723 55.768 42.0217 55.696 42.315 55.552C42.6137 55.4027 42.9043 55.1787 43.187 54.88V53.496ZM38.659 49.936C39.603 49.072 40.739 48.64 42.067 48.64C42.547 48.64 42.9763 48.72 43.355 48.88C43.7337 49.0347 44.0537 49.2533 44.315 49.536C44.5763 49.8133 44.7737 50.1467 44.907 50.536C45.0457 50.9253 45.115 51.352 45.115 51.816V57H44.219C44.0323 57 43.8883 56.9733 43.787 56.92C43.6857 56.8613 43.6057 56.7467 43.547 56.576L43.371 55.984C43.163 56.1707 42.9603 56.336 42.763 56.48C42.5657 56.6187 42.3603 56.736 42.147 56.832C41.9337 56.928 41.7043 57 41.459 57.048C41.219 57.1013 40.9523 57.128 40.659 57.128C40.3123 57.128 39.9923 57.0827 39.699 56.992C39.4057 56.896 39.1523 56.7547 38.939 56.568C38.7257 56.3813 38.5603 56.1493 38.443 55.872C38.3257 55.5947 38.267 55.272 38.267 54.904C38.267 54.696 38.3017 54.4907 38.371 54.288C38.4403 54.08 38.5523 53.8827 38.707 53.696C38.867 53.5093 39.0723 53.3333 39.323 53.168C39.5737 53.0027 39.8803 52.8587 40.243 52.736C40.611 52.6133 41.0377 52.5147 41.523 52.44C42.0083 52.36 42.563 52.312 43.187 52.296V51.816C43.187 51.2667 43.0697 50.8613 42.835 50.6C42.6003 50.3333 42.2617 50.2 41.819 50.2C41.499 50.2 41.2323 50.2373 41.019 50.312C40.811 50.3867 40.627 50.472 40.467 50.568C40.307 50.6587 40.1603 50.7413 40.027 50.816C39.899 50.8907 39.755 50.928 39.595 50.928C39.4563 50.928 39.339 50.8933 39.243 50.824C39.147 50.7493 39.0697 50.664 39.011 50.568L38.659 49.936ZM54.128 48.792V57H52.152V53.368H48.952V57H46.976V48.792H48.952V51.904H52.152V48.792H54.128ZM63.2374 48.792V57H61.2614V53.368H58.0614V57H56.0854V48.792H58.0614V51.904H61.2614V48.792H63.2374ZM68.8268 48.664C69.4348 48.664 69.9868 48.7627 70.4828 48.96C70.9841 49.1573 71.4108 49.4373 71.7628 49.8C72.1201 50.1627 72.3947 50.6053 72.5868 51.128C72.7788 51.6507 72.8748 52.2347 72.8748 52.88C72.8748 53.5307 72.7788 54.1173 72.5868 54.64C72.3947 55.1627 72.1201 55.608 71.7628 55.976C71.4108 56.344 70.9841 56.6267 70.4828 56.824C69.9868 57.0213 69.4348 57.12 68.8268 57.12C68.2134 57.12 67.6561 57.0213 67.1548 56.824C66.6534 56.6267 66.2241 56.344 65.8668 55.976C65.5148 55.608 65.2401 55.1627 65.0428 54.64C64.8508 54.1173 64.7548 53.5307 64.7548 52.88C64.7548 52.2347 64.8508 51.6507 65.0428 51.128C65.2401 50.6053 65.5148 50.1627 65.8668 49.8C66.2241 49.4373 66.6534 49.1573 67.1548 48.96C67.6561 48.7627 68.2134 48.664 68.8268 48.664ZM68.8268 55.6C69.5094 55.6 70.0134 55.3707 70.3388 54.912C70.6694 54.4533 70.8348 53.7813 70.8348 52.896C70.8348 52.0107 70.6694 51.336 70.3388 50.872C70.0134 50.408 69.5094 50.176 68.8268 50.176C68.1334 50.176 67.6188 50.4107 67.2828 50.88C66.9521 51.344 66.7868 52.016 66.7868 52.896C66.7868 53.776 66.9521 54.448 67.2828 54.912C67.6188 55.3707 68.1334 55.6 68.8268 55.6ZM79.6703 51.952C79.6703 51.696 79.6329 51.456 79.5583 51.232C79.4889 51.0027 79.3823 50.8027 79.2383 50.632C79.0943 50.4613 78.9103 50.328 78.6863 50.232C78.4676 50.1307 78.2116 50.08 77.9183 50.08C77.3476 50.08 76.8969 50.2427 76.5663 50.568C76.2409 50.8933 76.0329 51.3547 75.9423 51.952H79.6703ZM75.9023 53.144C75.9343 53.5653 76.0089 53.9307 76.1263 54.24C76.2436 54.544 76.3983 54.7973 76.5903 55C76.7823 55.1973 77.0089 55.3467 77.2703 55.448C77.5369 55.544 77.8303 55.592 78.1503 55.592C78.4703 55.592 78.7449 55.5547 78.9743 55.48C79.2089 55.4053 79.4116 55.3227 79.5823 55.232C79.7583 55.1413 79.9103 55.0587 80.0383 54.984C80.1716 54.9093 80.2996 54.872 80.4223 54.872C80.5876 54.872 80.7103 54.9333 80.7903 55.056L81.3583 55.776C81.1396 56.032 80.8943 56.248 80.6223 56.424C80.3503 56.5947 80.0649 56.7333 79.7663 56.84C79.4729 56.9413 79.1716 57.0133 78.8623 57.056C78.5583 57.0987 78.2623 57.12 77.9743 57.12C77.4036 57.12 76.8729 57.0267 76.3823 56.84C75.8916 56.648 75.4649 56.368 75.1023 56C74.7396 55.6267 74.4543 55.168 74.2463 54.624C74.0383 54.0747 73.9342 53.44 73.9342 52.72C73.9342 52.16 74.0249 51.6347 74.2063 51.144C74.3876 50.648 74.6463 50.2187 74.9823 49.856C75.3236 49.488 75.7369 49.1973 76.2223 48.984C76.7129 48.7707 77.2649 48.664 77.8783 48.664C78.3956 48.664 78.8729 48.7467 79.3103 48.912C79.7476 49.0773 80.1236 49.32 80.4383 49.64C80.7529 49.9547 80.9983 50.344 81.1743 50.808C81.3556 51.2667 81.4462 51.792 81.4462 52.384C81.4462 52.6827 81.4143 52.8853 81.3503 52.992C81.2863 53.0933 81.1636 53.144 80.9823 53.144H75.9023Z" fill="#2D2D2D"/>
</svg>

<svg width="82" height="61" fill="none" xmlns="http://www.w3.org/2000/svg"><path d="m41 32.025-2.175-1.98C31.1 23.04 26 18.42 26 12.75c0-4.62 3.63-8.25 8.25-8.25 2.61 0 5.115 1.215 6.75 3.135 1.635-1.92 4.14-3.135 6.75-3.135 4.62 0 8.25 3.63 8.25 8.25 0 5.67-5.1 10.29-12.825 17.31L41 32.025ZM11.04 45.432V57H8.88v-7.248c0-.272.005-.557.016-.856.016-.299.048-.616.096-.952a7.5 7.5 0 0 1-.352.832c-.123.25-.243.472-.36.664l-4.424 6.896c-.048.08-.107.16-.176.24-.064.08-.136.152-.216.216a1.42 1.42 0 0 1-.264.152.81.81 0 0 1-.296.056H1.288V45.432h2.16v7.248c0 .272-.008.56-.024.864-.01.299-.04.616-.088.952.107-.299.221-.576.344-.832.128-.256.253-.48.376-.672l4.416-6.896a1.366 1.366 0 0 1 .392-.448c.08-.064.165-.115.256-.152a.74.74 0 0 1 .304-.064h1.616Zm1.597 4.248c.309-.299.693-.541 1.152-.728.458-.192 1.008-.288 1.648-.288.506 0 .957.061 1.352.184.394.117.725.28.992.488.272.203.477.437.616.704a1.683 1.683 0 0 1 .144 1.312 1.6 1.6 0 0 1-.224.488c-.102.16-.238.31-.408.448-.171.133-.382.248-.632.344.448.17.808.421 1.08.752.277.33.416.739.416 1.224 0 .4-.094.755-.28 1.064-.182.31-.424.573-.728.792a3.446 3.446 0 0 1-1.048.488c-.39.112-.792.168-1.208.168a4.92 4.92 0 0 1-.76-.064 4.232 4.232 0 0 1-.808-.216 4.405 4.405 0 0 1-.8-.416 3.396 3.396 0 0 1-.712-.648l.568-.72c.08-.123.2-.184.36-.184.122 0 .24.04.352.12l.384.256c.149.09.325.176.528.256.202.075.456.112.76.112.496 0 .872-.112 1.128-.336a1.07 1.07 0 0 0 .384-.84c0-.33-.134-.59-.4-.776-.262-.187-.688-.28-1.28-.28h-.928v-1.288h.928c.517 0 .914-.09 1.192-.272.277-.181.416-.421.416-.72 0-.272-.123-.496-.368-.672-.24-.176-.598-.264-1.072-.264-.283 0-.523.03-.72.088a3.472 3.472 0 0 0-.512.192 3.48 3.48 0 0 0-.352.184.514.514 0 0 1-.504.04.703.703 0 0 1-.208-.232l-.448-.76Zm11.539 6c.682 0 1.192-.219 1.528-.656.336-.437.504-1.077.504-1.92 0-.837-.166-1.475-.496-1.912-.326-.437-.824-.656-1.496-.656s-1.184.208-1.536.624c-.352.41-.528 1.027-.528 1.848 0 .87.165 1.533.496 1.992.336.453.845.68 1.528.68Zm.576-8.376c-.502.032-.93.13-1.288.296-.352.16-.646.379-.88.656-.23.272-.406.6-.528.984-.118.379-.187.8-.208 1.264.133-.208.296-.397.488-.568.197-.176.416-.325.656-.448.245-.128.51-.227.792-.296.288-.07.594-.104.92-.104.544 0 1.034.096 1.472.288a3.09 3.09 0 0 1 1.112.816c.31.352.544.776.704 1.272.165.49.248 1.035.248 1.632a4.49 4.49 0 0 1-.296 1.672c-.192.496-.467.92-.824 1.272a3.574 3.574 0 0 1-1.28.8 4.736 4.736 0 0 1-1.664.28 4.548 4.548 0 0 1-1.64-.288 3.15 3.15 0 0 1-1.288-.936c-.363-.432-.646-.992-.848-1.68-.203-.693-.304-1.539-.304-2.536 0-.837.077-1.616.232-2.336.154-.72.408-1.35.76-1.888a4.028 4.028 0 0 1 1.384-1.312c.57-.33 1.274-.528 2.112-.592l2.92-.224.104 1.024a.946.946 0 0 1-.096.56c-.086.15-.238.23-.456.24l-2.304.152Zm6.997 7.568c.224.272.466.464.728.576.267.112.555.168.864.168.298 0 .568-.056.808-.168.24-.112.443-.283.608-.512.17-.23.301-.517.392-.864.09-.352.136-.765.136-1.24 0-.48-.04-.885-.12-1.216-.075-.336-.184-.608-.328-.816a1.304 1.304 0 0 0-.528-.456 1.608 1.608 0 0 0-.696-.144c-.41 0-.76.088-1.048.264-.288.17-.56.413-.816.728v3.68Zm-.104-4.96a4.28 4.28 0 0 1 1.144-.92c.426-.235.928-.352 1.504-.352.448 0 .856.093 1.224.28.373.187.693.459.96.816.272.352.48.79.624 1.312.15.517.224 1.112.224 1.784 0 .613-.083 1.181-.248 1.704a4.128 4.128 0 0 1-.712 1.36 3.264 3.264 0 0 1-1.112.904c-.432.213-.917.32-1.456.32-.459 0-.85-.07-1.176-.208a2.934 2.934 0 0 1-.872-.592v3.36h-1.976V48.792h1.208c.256 0 .424.12.504.36l.16.76Zm11.542 3.584c-.57.027-1.05.077-1.44.152-.39.07-.701.16-.936.272-.235.112-.403.243-.504.392a.852.852 0 0 0-.152.488c0 .347.101.595.304.744.208.15.477.224.808.224.405 0 .755-.072 1.048-.216.299-.15.59-.373.872-.672v-1.384Zm-4.528-3.56c.944-.864 2.08-1.296 3.408-1.296.48 0 .91.08 1.288.24.379.155.699.373.96.656.261.277.459.61.592 1 .139.39.208.816.208 1.28V57h-.896c-.187 0-.33-.027-.432-.08-.101-.059-.181-.173-.24-.344l-.176-.592c-.208.187-.41.352-.608.496a3.736 3.736 0 0 1-.616.352 3.14 3.14 0 0 1-.688.216c-.24.053-.507.08-.8.08-.347 0-.667-.045-.96-.136a2.157 2.157 0 0 1-.76-.424 1.886 1.886 0 0 1-.496-.696 2.47 2.47 0 0 1-.176-.968 1.892 1.892 0 0 1 .44-1.208c.16-.187.365-.363.616-.528.25-.165.557-.31.92-.432a7.847 7.847 0 0 1 1.28-.296c.485-.08 1.04-.128 1.664-.144v-.48c0-.55-.117-.955-.352-1.216-.235-.267-.573-.4-1.016-.4-.32 0-.587.037-.8.112-.208.075-.392.16-.552.256l-.44.248a.841.841 0 0 1-.432.112.585.585 0 0 1-.352-.104.956.956 0 0 1-.232-.256l-.352-.632Zm15.469-1.144V57h-1.976v-3.632h-3.2V57h-1.976v-8.208h1.976v3.112h3.2v-3.112h1.976Zm9.11 0V57H61.26v-3.632h-3.2V57h-1.976v-8.208h1.976v3.112h3.2v-3.112h1.976Zm5.589-.128c.608 0 1.16.099 1.656.296.501.197.928.477 1.28.84.357.363.632.805.824 1.328.192.523.288 1.107.288 1.752 0 .65-.096 1.237-.288 1.76a3.742 3.742 0 0 1-.824 1.336c-.352.368-.779.65-1.28.848a4.445 4.445 0 0 1-1.656.296 4.53 4.53 0 0 1-1.672-.296 3.615 3.615 0 0 1-1.288-.848 3.896 3.896 0 0 1-.824-1.336 5.076 5.076 0 0 1-.288-1.76c0-.645.096-1.23.288-1.752a3.81 3.81 0 0 1 .824-1.328 3.668 3.668 0 0 1 1.288-.84 4.53 4.53 0 0 1 1.672-.296Zm0 6.936c.682 0 1.186-.23 1.512-.688.33-.459.496-1.13.496-2.016 0-.885-.166-1.56-.496-2.024-.326-.464-.83-.696-1.512-.696-.694 0-1.208.235-1.544.704-.33.464-.496 1.136-.496 2.016 0 .88.165 1.552.496 2.016.336.459.85.688 1.544.688Zm10.843-3.648c0-.256-.037-.496-.112-.72-.07-.23-.176-.43-.32-.6a1.461 1.461 0 0 0-.552-.4 1.811 1.811 0 0 0-.768-.152c-.57 0-1.021.163-1.352.488-.325.325-.533.787-.624 1.384h3.728Zm-3.768 1.192c.032.421.107.787.224 1.096.118.304.272.557.464.76.192.197.419.347.68.448.267.096.56.144.88.144.32 0 .595-.037.824-.112.235-.075.438-.157.608-.248.176-.09.328-.173.456-.248a.786.786 0 0 1 .384-.112c.166 0 .288.061.368.184l.568.72a3.382 3.382 0 0 1-.736.648c-.272.17-.557.31-.856.416a4.756 4.756 0 0 1-.904.216c-.304.043-.6.064-.888.064a4.44 4.44 0 0 1-1.592-.28 3.634 3.634 0 0 1-1.28-.84 3.99 3.99 0 0 1-.856-1.376c-.208-.55-.312-1.184-.312-1.904 0-.56.09-1.085.272-1.576a3.78 3.78 0 0 1 .776-1.288 3.696 3.696 0 0 1 1.24-.872 4.113 4.113 0 0 1 1.656-.32c.518 0 .995.083 1.432.248.438.165.814.408 1.128.728.315.315.56.704.736 1.168.182.459.272.984.272 1.576 0 .299-.032.501-.096.608-.064.101-.186.152-.368.152h-5.08Z" fill="#2D2D2D"/></svg>
